X: 7873
T: Compliments To The Boys Of The Lough
R: jig
M: 6/8
K: Amajor
EAA ABc|BcB (A2c)|def ecA|caf ecA|
EAA ABc|BcB (A2c)|def ecA|~B3 A3:|
cee ecA|fda ecA|cee ecA|fec (~B2 A)|
cee ecA|fda ecA|fda ecA|{d}BAG A3:|

